symbols/web/toggle_off/materialsymbolsoutlined/toggle_off_grad200_20px.svg

<svg xmlns="http://www.w3.org/2000/svg" height="20" width="20"><path d="M5.75 15.625q-2.333 0-3.979-1.646T.125 10q0-2.354 1.646-3.99Q3.417 4.375 5.75 4.375h8.5q2.354 0 3.99 1.635 1.635 1.636 1.635 3.99 0 2.333-1.635 3.979-1.636 1.646-3.99 1.646Zm0-2.292h8.5q1.375 0 2.354-.979.979-.979.979-2.375 0-1.375-.979-2.344-.979-.968-2.354-.968h-8.5q-1.396 0-2.365.968-.968.969-.968 2.365 0 1.375.968 2.354.969.979 2.365.979Zm0-.229q1.292 0 2.198-.906.906-.906.906-2.198 0-1.292-.906-2.198-.906-.906-2.198-.906-1.292 0-2.198.906-.906.906-.906 2.198 0 1.292.906 2.198.906.906 2.198.906ZM10 10Z"/></svg>

<svg xmlns="http://www.w3.org/2000/svg" height="20" width="20"><path d="M5.75 15.625Q3.417 15.625 1.771 13.979Q0.125 12.333 0.125 10Q0.125 7.646 1.771 6.01Q3.417 4.375 5.75 4.375H14.25Q16.604 4.375 18.24 6.01Q19.875 7.646 19.875 10Q19.875 12.333 18.24 13.979Q16.604 15.625 14.25 15.625ZM5.75 13.333H14.25Q15.625 13.333 16.604 12.354Q17.583 11.375 17.583 9.979Q17.583 8.604 16.604 7.635Q15.625 6.667 14.25 6.667H5.75Q4.354 6.667 3.385 7.635Q2.417 8.604 2.417 10Q2.417 11.375 3.385 12.354Q4.354 13.333 5.75 13.333ZM5.75 13.104Q7.042 13.104 7.948 12.198Q8.854 11.292 8.854 10Q8.854 8.708 7.948 7.802Q7.042 6.896 5.75 6.896Q4.458 6.896 3.552 7.802Q2.646 8.708 2.646 10Q2.646 11.292 3.552 12.198Q4.458 13.104 5.75 13.104ZM10 10Q10 10 10 10Q10 10 10 10Q10 10 10 10Q10 10 10 10Q10 10 10 10Q10 10 10 10Q10 10 10 10Q10 10 10 10Z"/></svg>
